icons/svg/shopping/houseware.svg

<?xml version="1.0" encoding="UTF-8" standalone="no"?>
<!-- Created with Inkscape (http://www.inkscape.org/) -->

<svg
   xmlns:dc="http://purl.org/dc/elements/1.1/"
   xmlns:cc="http://creativecommons.org/ns#"
   xmlns:rdf="http://www.w3.org/1999/02/22-rdf-syntax-ns#"
   xmlns:svg="http://www.w3.org/2000/svg"
   xmlns="http://www.w3.org/2000/svg"
   xmlns:sodipodi="http://sodipodi.sourceforge.net/DTD/sodipodi-0.dtd"
   xmlns:inkscape="http://www.inkscape.org/namespaces/inkscape"
   version="1.0"
   width="580"
   height="580"
   id="svg2"
   sodipodi:version="0.32"
   inkscape:version="0.91 r"
   sodipodi:docname="houseware.svg"
   inkscape:output_extension="org.inkscape.output.svg.inkscape">
  <metadata
     id="metadata10">
    <rdf:RDF>
      <cc:Work
         rdf:about="">
        <dc:format>image/svg+xml</dc:format>
        <dc:type
           rdf:resource="http://purl.org/dc/dcmitype/StillImage" />
        <cc:license
           rdf:resource="http://web.resource.org/cc/PublicDomain" />
        <dc:language>en</dc:language>
        <dc:title />
      </cc:Work>
    </rdf:RDF>
  </metadata>
  <sodipodi:namedview
     inkscape:window-height="1004"
     inkscape:window-width="1920"
     inkscape:pageshadow="2"
     inkscape:pageopacity="0.0"
     guidetolerance="10.0"
     gridtolerance="10.0"
     objecttolerance="10.0"
     borderopacity="1.0"
     bordercolor="#666666"
     pagecolor="#ffffff"
     id="base"
     showgrid="false"
     inkscape:zoom="0.50000001"
     inkscape:cx="-2.0762874"
     inkscape:cy="264.8229"
     inkscape:window-x="1680"
     inkscape:window-y="0"
     inkscape:current-layer="svg2"
     inkscape:window-maximized="1" />
  <defs
     id="defs4">
    <clipPath
       id="clipoutline2"
       clipPathUnits="userSpaceOnUse">
      <path
         d="M 55.8,12 L 56.56,12.16 C 65.4,9.22 85.24,20.8 80.82,31.12 C 79.7,32.74 79.89,35.62 81.24,37.43 L 56.43,62.25 C 55.04,60.86 51.95,60.89 50.53,62.25 L 9.5,101.63 C 5.76,105.22 8.7,108.27 10.28,109.88 L 17.64,117.24 C 19.25,118.84 23.5,121 26.52,117.8 L 65.24,76.99 C 66.59,75.57 66.6,72.52 65.24,71.12 C 65.24,71.12 65.25,71.1 65.24,71.1 L 90.15,46.2 C 92.78,48.57 95.263827,48.774854 97.62,48.13 C 102.17057,46.884568 104.70725,51.336643 107.43,54.59 L 106.2,55.8 C 104.38,57.64 104.55,60.74 106.59,62.78 C 108.63,64.82 111.74,64.99 113.56,63.17 L 121.7,55.04 C 123.52,53.2 123.35,50.1 121.3,48.07 C 119.46,46.22 116.79,45.98 114.93,47.3 C 109.35,41.04 112.28,40.1 104.92,31.95 L 91.13,17.86 C 81.2,8.12 68.3,8.13 55.8,12 z"
         id="outline2" />
    </clipPath>
    <clipPath
       id="clipoutline1"
       clipPathUnits="userSpaceOnUse">
      <path
         d="M 22.42,17.2 L 35.38,30.15 L 32.88,38.93 L 24.1,41.43 L 11.14,28.47 L 5.28,34.33 L 20.17,55.79 L 37.73,52.45 L 99.36,118.07 C 108.8,127.58 121.53,113.32 112.7,105.2 L 46.85,42.92 L 50.86,25.16 L 28.72,10.89 L 22.42,17.2 z M 103.48,109.17 C 105.16,107.49 107.88,107.49 109.56,109.17 C 111.24,110.85 111.24,113.57 109.56,115.25 C 107.88,116.92 105.16,116.92 103.48,115.25 C 101.8,113.57 101.8,110.85 103.48,109.17 z"
         id="outline1" />
    </clipPath>
    <inkscape:perspective
       sodipodi:type="inkscape:persp3d"
       inkscape:vp_x="0 : 290 : 1"
       inkscape:vp_y="0 : 1000 : 0"
       inkscape:vp_z="580 : 290 : 1"
       inkscape:persp3d-origin="290 : 193.33333 : 1"
       id="perspective12" />
    <style
       type="text/css"
       id="style6">
   
    .fil0 {fill:#EF7900}
   
  </style>
    <inkscape:perspective
       id="perspective6807"
       inkscape:persp3d-origin="29.116032 : 19.410688 : 1"
       inkscape:vp_z="58.232063 : 29.116032 : 1"
       inkscape:vp_y="0 : 1000 : 0"
       inkscape:vp_x="0 : 29.116032 : 1"
       sodipodi:type="inkscape:persp3d" />
    <inkscape:perspective
       id="perspective6954"
       inkscape:persp3d-origin="290 : 193.33333 : 1"
       inkscape:vp_z="580 : 290 : 1"
       inkscape:vp_y="0 : 1000 : 0"
       inkscape:vp_x="0 : 290 : 1"
       sodipodi:type="inkscape:persp3d" />
    <marker
       viewBox="0 0 10 10"
       refY="5"
       refX="10"
       orient="auto"
       markerWidth="4"
       markerUnits="strokeWidth"
       markerHeight="3"
       id="ArrowStart">
      <path
         id="path2295"
         d="M 10 0 L 0 5 L 10 10 z" />
    </marker>
    <marker
       viewBox="0 0 10 10"
       refY="5"
       refX="0"
       orient="auto"
       markerWidth="4"
       markerUnits="strokeWidth"
       markerHeight="3"
       id="ArrowEnd">
      <path
         id="path2292"
         d="M 0 0 L 10 5 L 0 10 z" />
    </marker>
    <inkscape:perspective
       id="perspective7597"
       inkscape:persp3d-origin="178.5405 : 158.483 : 1"
       inkscape:vp_z="357.08099 : 237.7245 : 1"
       inkscape:vp_y="0 : 1000 : 0"
       inkscape:vp_x="0 : 237.7245 : 1"
       sodipodi:type="inkscape:persp3d" />
  </defs>
  <g
     id="g1327"
     transform="translate(0.5,-0.5)">
    <path
       d="M 66.275,1.768 C 24.94,1.768 1.704,23.139 1.704,66.804 l 0,450.123 c 0,40.844 20.894,62.229 62.192,62.229 l 452.024,0 c 41.307,0 62.229,-20.316 62.229,-62.229 l 0,-450.123 c 0,-42.601 -20.922,-65.036 -63.522,-65.036 -0.003,0 -448.494,-0.143 -448.352,0 z"
       style="fill:#111111;stroke:#eeeeee;stroke-width:3.40799999"
       id="path1329"
       inkscape:connector-curvature="0" />
  </g>
  <g
     id="g2319"
     transform="translate(879.29125,36.805119)">
    <path
       id="path2323"
       style="fill:#ffffff;stroke:none"
       d="" />
  </g>
  <g
     id="g2325"
     transform="translate(879.29125,36.805119)">
    <path
       id="path2329"
       style="fill:#ffffff;stroke:none"
       d="" />
  </g>
  <path
     inkscape:connector-curvature="0"
     style="fill:none;stroke:#ffffff;stroke-width:41.08821869;stroke-linecap:round;stroke-linejoin:round;stroke-miterlimit:10;stroke-opacity:1"
     stroke-miterlimit="10"
     d="m 515.98516,187.27945 -22.59846,0 c -10.27198,0 -18.48963,8.21765 -20.54405,18.48971 l -14.3809,110.93819 c -2.05442,20.5441 -20.54415,36.97938 -41.0882,36.97938 l -254.74702,0 c -20.54405,0 -39.03378,-16.43528 -41.08819,-36.97938 L 107.15753,205.76916 C 105.10305,195.4971 96.885416,187.27945 86.613363,187.27945 l -22.598522,0"
     id="path3" />
  <path
     inkscape:connector-curvature="0"
     d="m 290.00004,84.558919 c -110.9382,0 -184.89699,82.176431 -184.89699,82.176431 l 369.79402,0 c 0,0 -73.95883,-82.176431 -184.89703,-82.176431 z"
     id="path5"
     style="fill:#ffffff;fill-opacity:1" />
  <path
     inkscape:connector-curvature="0"
     d="m 310.54419,105.10302 -41.0883,0 -12.32648,-32.870568 c 0,-4.108821 2.05441,-8.217644 8.21766,-8.217644 l 51.36027,0 c 4.10893,0 8.21765,4.108823 6.16323,8.217644 l -12.32638,32.870568 z"
     id="path7-3"
     style="fill:#ffffff;fill-opacity:1" />
  <path
     inkscape:connector-curvature="0"
     d="m 439.97201,392.72054 -299.94395,0 c -8.21766,0 -16.43531,6.16323 -18.48972,14.38086 l -26.707337,82.17644 c -6.163228,12.32648 4.108826,26.70735 18.489677,26.70735 l 353.35873,0 c 14.3808,0 24.65297,-14.38087 18.48963,-26.70735 L 458.46175,407.1014 c -2.05442,-8.21763 -10.27208,-14.38086 -18.48974,-14.38086 z M 290.00004,495.44108 c -22.59856,0 -41.0883,-18.4897 -41.0883,-41.08821 0,-22.59852 18.48974,-41.08822 41.0883,-41.08822 22.59857,0 41.0882,18.4897 41.0882,41.08822 0,22.59851 -18.48963,41.08821 -41.0882,41.08821 z"
     id="path15"
     style="fill:#ffffff;fill-opacity:1" />
  <line
     style="fill:none;fill-opacity:1;stroke:#ffffff;stroke-width:20.54410934;stroke-miterlimit:10;stroke-opacity:1"
     stroke-miterlimit="10"
     x1="273.56516"
     y1="470.78799"
     x2="306.4353"
     y2="437.91791"
     id="line17" />
</svg>

<svg width="580" height="580" viewBox="0 0 580 580" fill="none" xmlns="http://www.w3.org/2000/svg">
<g clip-path="url(#clip0)">
<path d="M66.7751 1.26863C25.4401 1.26863 2.2041 22.6396 2.2041 66.3046V516.428C2.2041 557.272 23.0981 578.657 64.3961 578.657H516.42C557.727 578.657 578.649 558.341 578.649 516.428V66.3046C578.649 23.7036 557.727 1.26863 515.127 1.26863C515.124 1.26863 66.6331 1.12563 66.7751 1.26863V1.26863Z" fill="#111111" stroke="#EEEEEE" stroke-width="3.408"/>
<path d="M515.985 187.279H493.387C483.115 187.279 474.897 195.497 472.842 205.769L458.462 316.707C456.407 337.251 437.917 353.687 417.373 353.687H162.626C142.082 353.687 123.593 337.251 121.538 316.707L107.157 205.769C105.103 195.497 96.8852 187.279 86.6132 187.279H64.0146" stroke="white" stroke-width="41.0882" stroke-miterlimit="10" stroke-linecap="round" stroke-linejoin="round"/>
<path d="M290 84.5586C179.062 84.5586 105.103 166.735 105.103 166.735H474.897C474.897 166.735 400.938 84.5586 290 84.5586V84.5586Z" fill="white"/>
<path d="M310.544 105.104H269.456L257.129 72.2333C257.129 68.1244 259.184 64.0156 265.347 64.0156H316.707C320.816 64.0156 324.925 68.1244 322.871 72.2333L310.544 105.104V105.104Z" fill="white"/>
<path d="M439.972 392.721H140.028C131.81 392.721 123.593 398.884 121.538 407.102L94.831 489.278C88.6678 501.604 98.9399 515.985 113.321 515.985H466.679C481.06 515.985 491.332 501.604 485.169 489.278L458.462 407.102C456.407 398.884 448.19 392.721 439.972 392.721ZM290 495.441C267.402 495.441 248.912 476.952 248.912 454.353C248.912 431.755 267.402 413.265 290 413.265C312.599 413.265 331.088 431.755 331.088 454.353C331.088 476.952 312.599 495.441 290 495.441Z" fill="white"/>
<path d="M273.565 470.788L306.435 437.918" stroke="white" stroke-width="20.5441" stroke-miterlimit="10"/>
</g>
<defs>
<clipPath id="clip0">
<path d="M0 0H580V580H0V0Z" fill="white"/>
</clipPath>
</defs>
</svg>
